X: 211
T: Her Majesty's Welcome to Glenfiddoch
C: William MacDonald arr. Bert Murray
R: jig
B: Bert Murray's "Bon Accord Collection" 1999 p.21
Z: 2011 John Chambers <jc:trillian.mit.edu>
M: 6/8
L: 1/8
K: A
|: ue |\
A>BA c>ae | f>ed c>BA | [cc2]>A[cc] e>ac | B>=GB (B2c) |\
A>BA c>ae | f>ed c>BA | d>ef e>ca | A>BA A2 :|
|: ue |\
[AA2]>B[AA] c>Bc | e>fe e>cA | [cc2]>A[cc] e>ac | B>=GB B2c |\
[AA2]>B[AA] (c>Bc) | e>fe e>cA | d>ef e>ca | A>BA A2 |]

%%sep 2 1 500

